svgs/solid/turntable.svg

<svg xmlns="http://www.w3.org/2000/svg" viewBox="0 0 576 512"><!-- Font Awesome Pro 6.0.0-alpha2 by @fontawesome - https://fontawesome.com License - https://fontawesome.com/license (Commercial License) --><path d="M512 32H64C28.625 32 0 60.625 0 96V416C0 451.375 28.625 480 64 480H512C547.375 480 576 451.375 576 416V96C576 60.625 547.375 32 512 32ZM224 416C135.625 416 64 344.375 64 256S135.625 96 224 96S384 167.625 384 256S312.375 416 224 416ZM512 267.875C512 277.75 509.625 287.5 505.25 296.5L486.25 334.25C494.25 338.25 497.375 347.875 493.5 355.75L467.75 407.125C463.875 415 454.25 418.25 446.25 414.25L417.75 400C409.75 396 406.625 386.5 410.5 378.5L436.25 327.125C440.125 319.25 449.75 316 457.75 320L476.625 282.125C478.844 277.67 480 272.762 480 267.785V112C480 103.199 487.199 96 496 96S512 103.199 512 112V267.875ZM224 224C206.375 224 192 238.375 192 256S206.375 288 224 288S256 273.625 256 256S241.625 224 224 224Z"/></svg>

<svg xmlns="http://www.w3.org/2000/svg" viewBox="0 0 576 512"><!-- Font Awesome Pro 5.15.1 by @fontawesome - https://fontawesome.com License - https://fontawesome.com/license (Commercial License) --><path d="M224 224a32 32 0 1 0 32 32 32 32 0 0 0-32-32zM512 32H64A64 64 0 0 0 0 96v320a64 64 0 0 0 64 64h448a64 64 0 0 0 64-64V96a64 64 0 0 0-64-64zM224 416a160 160 0 1 1 160-160 160 160 0 0 1-160 160zm288-148.18a64 64 0 0 1-6.76 28.63l-18.93 37.86a16 16 0 0 1 7.16 21.46l-25.69 51.38a16 16 0 0 1-21.47 7.16L417.69 400a16 16 0 0 1-7.16-21.46l25.69-51.38a16 16 0 0 1 21.47-7.16l18.93-37.87a32 32 0 0 0 3.38-14.32V104a8 8 0 0 1 8-8h16a8 8 0 0 1 8 8z"/></svg>
